X: 40347
T: Tom Byrne's
R: reel
M: 4/4
K: Fmajor
|:fg|agfd cA A/c/A|AGFD CA, A,/C/A,|CFAF cFAF|G/A/G FA GFDF|
agfd cA A/c/A|AGFD CA, A,/C/A,|CFAF cFAF|GF E/F/G F2:|
|:z c|dc c/d/c dcfc|A/B/c FA GFDF|fadf cfAc|GCEG F2 z c|
dc c/d/c dcfc|AcFA GF D/E/F|agfa gfdf|cAGA F2:|

